!!!SOCIAL_FUNCTION:	love songs
!!!PDT:	1932
!!!OTL: No_136_Love_Song_(b).krn
!!!REG: Wisconsin
!!!LANG: Non-Tone
!!!LING_GROUP: Algonquin
**kern
*staff1
=1-
*clefF4
*k[f#c#g#]
*M2/4
8.e\L
16B\Jk
8.B\L
16c#\Jk
=2||
*M3/4
8.c#\L
16e\Jk
4e\
4e\
=3||
*M2/4
8.e\L
16B\Jk
4B\
=4
[2A\
=5
4A\_
8.A\L]
16E\Jk
=6
8.E\L
16F#\Jk
8.F#\L
16A\Jk
=7||
*M3/4
4A\
4A\
4F#\
=8
[2.E\
=9
4E\]
4E\
4r
==
*-
